X:135 
T:Miss McLeod's Polka 
F:file ID: cre.5/135miss_mc
B:CRE5.090 (Polca InÃÂÃÂÃÂÃÂ­on Mhic Leoid)
N:No repeats in CRE.
M:2/4
L:1/16
Q:120
R:polka
K:D
A2F2 d2A2|d2A2 f4|gfed e4|edcB A2G2|
"5"F2D2 A2F2|d2A2 f4|gfed e4|edcB A2G2:|
"9"F2A2 d2A2|f2fg agfa|FAdf a4|FAdf a4|
"13"F2A2 d2A2|f2fg agfa|A2^GA f2e2|d4 d4:|
"17"|:D2d2 B2d2|F2FE FGFE|D2CD B2cd|E2ED EGFE|
"21"D2cd B2cd|F2FE FGFE|BABc dcde|1f2d2d4:|
[2"last time"f2d2d4-|d8|]

%%%

